Origami/32x32/apps/zandronum.svg

<svg width="32" height="32" version="1.1" viewBox="0 0 32 32" xmlns="http://www.w3.org/2000/svg">
 <path d="m3.0035739 11.670703v5.329297c0 1.182951-0.094209 3.219306 0.6847542 4.167187 1.2956453 2.17091 4.072108 6.868802 5.1376913 9.019337 0.3477625 0.643213 1.1195965 0.813475 2.0935846 0.813476h4.580396 4.580396c0.973988-1e-6 1.745822-0.170263 2.093585-0.813476 1.065583-2.150535 3.842045-6.848427 5.137691-9.019337 0.778963-0.947881 0.684754-2.984236 0.684754-4.167187v-5.329297c0-4.470703-5.553967-8.670703-12.496426-8.670703-6.9424591 0-12.496426 4.2-12.496426 8.670703z" style="opacity:.2"/>
 <path d="m3.0035739 10.670703v5.329297c0 1.182951-0.094209 3.219306 0.6847542 4.167187 1.2956453 2.17091 4.072108 6.868802 5.1376913 9.019337 0.3477625 0.643213 1.1195965 0.813475 2.0935846 0.813476h4.580396 4.580396c0.973988-1e-6 1.745822-0.170263 2.093585-0.813476 1.065583-2.150535 3.842045-6.848427 5.137691-9.019337 0.778963-0.947881 0.684754-2.984236 0.684754-4.167187v-5.329297c0-4.470703-5.553967-8.670703-12.496426-8.670703-6.9424591 0-12.496426 4.2-12.496426 8.670703z" style="fill:#6e6e6e"/>
 <path d="m4.7496745 15.976073c-0.8097576 0.0056-1.6197293 0.01774-1.7456054 0.03691v0.68747c0 1.182951-0.09537 2.518849 0.6835937 3.46673 1.2956453 2.17091 4.0722205 6.868802 5.1378038 9.019337 0.3477625 0.643217 1.1201958 0.813479 2.0941844 0.81348h4.580349 4.580349c0.973989-1e-6 1.746421-0.170263 2.094184-0.813476 1.065583-2.150535 3.842158-6.848427 5.137804-9.019337 0.778963-0.947881 0.683594-2.283779 0.683594-3.46673v-0.68747c-0.145631 7e-6 -3.045146-0.019827-3.172472-0.012987-2.823459-0.023927-2.705611 0.984366-3.867459 2.800457-1.090159 1.882499-1.094649 4.230799-1.639268 5.599543-0.766503-2.641686-0.34451-7.9-3.816732-7.9s-3.050229 5.258314-3.816732 7.9c-0.544619-1.368744-0.249109-3.717044-1.339268-5.599543-0.7547014-1.278631-2.0064563-2.716557-3.662-2.821651-0.1116285-0.0071-1.1206811-0.0084-1.9323255-0.0027z" style="opacity:.2"/>
 <path d="m10.919651 30h4.580349 4.580349l-0.763617-5.6c-0.766503-2.641686-0.34451-7.7-3.816732-7.7s-3.050229 5.058314-3.816732 7.7z" style="opacity:.15"/>
 <path d="m6 15v2c2.069493-0.323989 3.0879687 1.348941 3.9444444 2.8 1.0901586 1.882499 1.1942046 4.331256 1.7388236 5.7 0.766503-2.641686 0.34451-7.5 3.816732-7.5s3.050229 4.858314 3.816732 7.5c0.544619-1.368744 0.648664-3.817501 1.738823-5.7 1.239912-1.938112 1.741039-2.8 3.944445-2.8v-2h-9.5z" style="opacity:.2"/>
 <path d="m6 14v2c2.069493-0.323989 3.0879687 1.348941 3.9444444 2.8 1.0901586 1.882499 1.1942046 4.331256 1.7388236 5.7 0.766503-2.641686 0.34451-7.5 3.816732-7.5s3.050229 4.858314 3.816732 7.5c0.544619-1.368744 0.648664-3.817501 1.738823-5.7 1.239912-1.938112 1.741039-2.8 3.944445-2.8v-2h-9.5z" style="fill:#7ac4eb"/>
 <path d="m15.5 2c-6.9424591 0-12.496094 4.1992189-12.496094 8.669922v1c0-4.4707031 5.5536347-8.669922 12.496094-8.669922 6.942459 0 12.496094 4.1992189 12.496094 8.669922v-1c0-4.4707031-5.553635-8.669922-12.496094-8.669922zm-12.496094 14c0 0.306247-0.0041567 0.671648 0 1.058594 3.62e-5 -0.017377 0-0.041565 0-0.058594v-1zm24.992188 0v1c0 0.017029-3.6e-5 0.041217 0 0.058594 0.004156-0.386946 0-0.752347 0-1.058594z" style="fill:#ffffff;opacity:.1"/>
 <path d="m6 14v1h9.5 9.5v-1h-9.5-9.5z" style="fill:#ffffff;opacity:.1"/>
</svg>

<svg xmlns="http://www.w3.org/2000/svg" width="32" height="32" version="1.1" viewBox="0 0 32 32">
 <path style="opacity:0.2" d="m 3.0035739,11.670703 0,5.329297 c 0,1.182951 -0.094209,3.219306 0.6847542,4.167187 1.2956453,2.17091 4.072108,6.868802 5.1376913,9.019337 C 9.1737819,30.829737 9.9456159,30.999999 10.919604,31 L 15.5,31 l 4.580396,0 c 0.973988,-1e-6 1.745822,-0.170263 2.093585,-0.813476 1.065583,-2.150535 3.842045,-6.848427 5.137691,-9.019337 C 28.090635,20.219306 27.996426,18.182951 27.996426,17 l 0,-5.329297 C 27.996426,7.2 22.442459,3 15.5,3 8.5575409,3 3.0035739,7.2 3.0035739,11.670703 Z"/>
 <path style="fill:#6e6e6e" d="m 3.0035739,10.670703 0,5.329297 c 0,1.182951 -0.094209,3.219306 0.6847542,4.167187 1.2956453,2.17091 4.072108,6.868802 5.1376913,9.019337 C 9.1737819,29.829737 9.9456159,29.999999 10.919604,30 L 15.5,30 l 4.580396,0 c 0.973988,-1e-6 1.745822,-0.170263 2.093585,-0.813476 1.065583,-2.150535 3.842045,-6.848427 5.137691,-9.019337 C 28.090635,19.219306 27.996426,17.182951 27.996426,16 l 0,-5.329297 C 27.996426,6.2 22.442459,2 15.5,2 8.5575409,2 3.0035739,6.2 3.0035739,10.670703 Z"/>
 <path style="opacity:0.2" d="m 4.7496745,15.976073 c -0.8097576,0.0056 -1.6197293,0.01774 -1.7456054,0.03691 l 0,0.68747 c 0,1.182951 -0.09537,2.518849 0.6835937,3.46673 1.2956453,2.17091 4.0722205,6.868802 5.1378038,9.019337 C 9.1732291,29.829737 9.9456624,29.999999 10.919651,30 L 15.5,30 l 4.580349,0 c 0.973989,-1e-6 1.746421,-0.170263 2.094184,-0.813476 1.065583,-2.150535 3.842158,-6.848427 5.137804,-9.019337 0.778963,-0.947881 0.683594,-2.283779 0.683594,-3.46673 l 0,-0.68747 C 27.8503,16.012994 24.950785,15.99316 24.823459,16 22,15.976073 22.117848,16.984366 20.956,18.800457 19.865841,20.682956 19.861351,23.031256 19.316732,24.4 18.550229,21.758314 18.972222,16.5 15.5,16.5 c -3.472222,0 -3.050229,5.258314 -3.816732,7.9 C 11.138649,23.031256 11.434159,20.682956 10.344,18.800457 9.5892986,17.521826 8.3375437,16.0839 6.682,15.978806 c -0.1116285,-0.0071 -1.1206811,-0.0084 -1.9323255,-0.0027 z"/>
 <path style="opacity:0.15" d="M 10.919651,30 15.5,30 20.080349,30 19.316732,24.4 C 18.550229,21.758314 18.972222,16.7 15.5,16.7 c -3.472222,0 -3.050229,5.058314 -3.816732,7.7 z"/>
 <path style="opacity:0.2" d="m 6,15 0,2 c 2.069493,-0.323989 3.0879687,1.348941 3.9444444,2.8 1.0901586,1.882499 1.1942046,4.331256 1.7388236,5.7 C 12.449771,22.858314 12.027778,18 15.5,18 c 3.472222,0 3.050229,4.858314 3.816732,7.5 0.544619,-1.368744 0.648664,-3.817501 1.738823,-5.7 C 22.295467,17.861888 22.796594,17 25,17 l 0,-2 -9.5,0 z"/>
 <path style="fill:#7ac4eb" d="m 6,14 0,2 c 2.069493,-0.323989 3.0879687,1.348941 3.9444444,2.8 1.0901586,1.882499 1.1942046,4.331256 1.7388236,5.7 C 12.449771,21.858314 12.027778,17 15.5,17 c 3.472222,0 3.050229,4.858314 3.816732,7.5 0.544619,-1.368744 0.648664,-3.817501 1.738823,-5.7 C 22.295467,16.861888 22.796594,16 25,16 l 0,-2 -9.5,0 z"/>
 <path style="opacity:0.1;fill:#ffffff" d="M 15.5 2 C 8.5575409 2 3.0039062 6.1992189 3.0039062 10.669922 L 3.0039062 11.669922 C 3.0039062 7.1992189 8.5575409 3 15.5 3 C 22.442459 3 27.996094 7.1992189 27.996094 11.669922 L 27.996094 10.669922 C 27.996094 6.1992189 22.442459 2 15.5 2 z M 3.0039062 16 C 3.0039062 16.306247 2.9997495 16.671648 3.0039062 17.058594 C 3.0039424 17.041217 3.0039062 17.017029 3.0039062 17 L 3.0039062 16 z M 27.996094 16 L 27.996094 17 C 27.996094 17.017029 27.996058 17.041217 27.996094 17.058594 C 28.00025 16.671648 27.996094 16.306247 27.996094 16 z"/>
 <path style="opacity:0.1;fill:#ffffff" d="M 6 14 L 6 15 L 15.5 15 L 25 15 L 25 14 L 15.5 14 L 6 14 z"/>
</svg>
